!!!!SEGMENT: pl-sa--351-a-vii-111--005_elsner-jozef--missa-in-f-benedictus.krn
!!!cenid: 18xx:1270
!!!COM: Elsner, Józef
!!!COM-rismID: pe30000957
!!!CDT: 1769/06/01-1854/04/18
!!!CNT: Polish
!!!OPR: Missa in F
!!!OTL: Benedictus
!!!OMV: 005
!!!PDT: 1828
!!!AGN: Sacred; Mass
!!!SMS-siglum: PL-SA
!!!SMS-shelfmark: 351/A VII 111
!!!SMS-shelfwork: 001-005 M
!!!SMS-variant:
!!!SMS-altvar:
!!!NIFC-rismSourceID: 1001070170
!!!NIFC-rismChildID: 1001070170
!!!NIFC-islandoraID: none
!!!URL-pdf-islandora:
!!!URL-scan: https://bc.bdsandomierz.pl/dlibra/publication/1655/edition/1623/content @EN{Scan in the Sandomierz Diocese Digital Library} @PL{Skany w portalu Cyfrowa Biblioteka Diecezjalna w Sandomierzu}
!!!IIIF:
!!!ONB-nifc: UWAGA: części Mszy: 1. Kyrie, 2. Gloria, 3. Credo, 4. Sanctus, 5. Benedictus, 6. Agnus Dei
!!!AIN: 2 alto 2 bass 2 soprn 2 tenor
!!!key: B
**kern	**text	**kern	**text	**kern	**text	**kern	**text	**dynam	**kern	**text	**kern	**text	**kern	**text	**kern	**text	**dynam
*part8	*part8	*part7	*part7	*part6	*part6	*part5	*part5	*part5	*part4	*part4	*part3	*part3	*part2	*part2	*part1	*part1	*part1
*staff8	*staff8	*staff7	*staff7	*staff6	*staff6	*staff5	*staff5	*	*staff4	*staff4	*staff3	*staff3	*staff2	*staff2	*staff1	*staff1	*
*I"Baſso.	*	*I"Tenore.	*	*I"Alto.	*	*I"Canto.	*	*	*I"Baſso.	*	*I"Tenore.	*	*I"Alto.	*	*I"Canto.	*	*
*I'Coro B	*	*I'Coro T	*	*I'Coro A	*	*I'Coro S	*	*	*I'B	*	*I'T	*	*I'A	*	*I'S	*	*
*Ibass	*	*Itenor	*	*Ialto	*	*Isoprn	*	*	*Ibass	*	*Itenor	*	*Ialto	*	*Isoprn	*	*
*ICvox	*	*ICvox	*	*ICvox	*	*ICvox	*	*	*ICvox	*	*ICvox	*	*ICvox	*	*ICvox	*	*
*IGcoro	*	*IGcoro	*	*IGcoro	*	*IGcoro	*	*	*IGsolo	*	*IGsolo	*	*IGsolo	*	*IGsolo	*	*
*	*	*	*	*oclefC3	*	*	*	*	*	*	*	*	*	*	*	*	*
*clefF4	*	*clefC3	*	*clefC4	*	*clefC1	*	*	*clefF4	*	*clefC3	*	*clefC4	*	*clefC1	*	*
*k[b-e-]	*	*k[e-b-]	*	*k[b-e-]	*	*k[b-e-]	*	*	*k[b-e-]	*	*k[b-e-]	*	*k[b-e-]	*	*k[b-e-]	*	*
*B:	*	*B:	*	*B:	*	*B:	*	*	*B:	*	*B:	*	*B:	*	*B:	*	*
*M2/4	*	*M2/4	*	*M2/4	*	*M2/4	*	*	*M2/4	*	*M2/4	*	*M2/4	*	*M2/4	*	*
=1	=1	=1	=1	=1	=1	=1	=1	=1	=1	=1	=1	=1	=1	=1	=1	=1	=1
!	!	!LO:TX:t=P:problem=prawdopodobnie partia A w złej okładce (skan 45)	!	!LO:TX:t=P:problem=prawdopodobnie partia T w złej okładce (skan 29)	!	!	!	!	!	!	!LO:TX:t=P:problem=prawdopodobnie partia A w złej okładce (skan 44)	!	!LO:TX:t=P:problem=prawdopodobnie partia T w złej okładce (skan 28)	!	!	!	!
!	!	!	!	!LO:TX:t=P:problem=błędnie klucz F3 i znaki w nim	!	!	!	!	!	!	!	!	!	!	!	!	!
!LO:TX:a:i:rj:t=Andantino	!	!LO:TX:a:i:t=Andantino	!	!LO:TX:a:i:t=Andantino.	!	!LO:TX:a:i:t=Andantino	!	!LO:DY:a:rj:t=mf.	!LO:TX:a:i:rj:t=Andantino.	!	!LO:TX:a:i:t=Andantino.	!	!LO:TX:a:i:t=Andantino	!	!LO:TX:a:i:t=Andantino	!	!
!LO:TX:a:i:rj:t=Tutti	!	!LO:TX:a:i:rj:t=Tutti	!	!LO:TX:a:i:rj:t=Tutti	!	!LO:TX:a:i:rj:t=Tutti	!	!	!	!	!	!	!	!	!LO:TX:a:i:rj:t=Soli	!	!
4B-\	Be-	4.b-\	Be-	4d\	Be-	4b-\	Be-	mf	4B-\	Be-	4.b-\	Be-	4d\	Be-	4b-\	Be-	.
4F\	-ne-	.	.	4e-\	-ne-	4cc\	-ne-	.	4F\	-ne-	.	.	4e-\	-ne-	4cc\	-ne-	.
.	.	8a\	-ne-	.	.	.	.	.	.	.	8a\	-ne-	.	.	.	.	.
=2	=2	=2	=2	=2	=2	=2	=2	=2	=2	=2	=2	=2	=2	=2	=2	=2	=2
4BB-/	-di-	8b-\L	-di-	8d\L	-di-	8b-\L	-di-	.	4BB-/	-dic-	8b-\L	-dic-	8d\L	-di-	8b-\L	-di-	.
.	.	16f\L	.	8c\J	.	8a\J	.	.	.	.	16f\L	.	8c\J	.	8a\J	.	.
.	.	16e-\JJ	.	.	.	.	.	.	.	.	16e-\JJ	.	.	.	.	.	.
8BB-/	-ctus	8d\	-ctus	8B-\	-ctus	8b-\	-ctus	.	8BB-/	-ctus	8d\	-ctus	8B-\	-ctus	8b-\	-ctus	.
8F\	qui	8e-\	qui	8A\	qui	(16dd\LL	qui	.	8r	.	8r	.	8r	.	8r	.	.
.	.	.	.	.	.	16cc\JJ)	.	.	.	.	.	.	.	.	.	.	.
=3	=3	=3	=3	=3	=3	=3	=3	=3	=3	=3	=3	=3	=3	=3	=3	=3	=3
!	!	!	!	!	!	!	!	!	!LO:TX:t=1.	!	!	!	!	!	!	!	!
8BB-/	ve-	8d\	ve-	8B-\	ve-	8b-\	ve-	.	2r	.	8r	.	4B-\	Be-	4r	.	.
16BB-/	-nit	16d\	-nit	16B-\	-nit	16b-\	-nit	.	.	.	4b-\	Be-	.	.	.	.	.
16r	.	16r	.	16r	.	16r	.	.	.	.	.	.	.	.	.	.	.
4r	.	4r	.	4r	.	4r	.	.	.	.	.	.	4c\	-ne-	8r	.	.
!	!	!	!	!	!	!	!	!	!	!	!	!	!	!	!LO:TX:a:i:t=dolce	!	!
.	.	.	.	.	.	.	.	.	.	.	8a\	-ne-	.	.	16ff\	Be-	.
.	.	.	.	.	.	.	.	.	.	.	.	.	.	.	16ee-\	-ne-	.
=4	=4	=4	=4	=4	=4	=4	=4	=4	=4	=4	=4	=4	=4	=4	=4	=4	=4
!LO:TX:t=6.	!	!LO:TX:t=6.	!	!LO:TX:t=6.	!	!LO:TX:t=6.	!	!	!	!	!	!	!	!	!	!	!
0r	.	0r	.	0r	.	0r	.	.	4r	.	8b-\L	-di-	8B-\L	-di-	(8dd\L	-di-	.
.	.	.	.	.	.	.	.	.	.	.	16f\L	.	8A\J	.	8cc\J)	.	.
.	.	.	.	.	.	.	.	.	.	.	16e-\JJ	.	.	.	.	.	.
.	.	.	.	.	.	.	.	.	8r	.	8d\	-ctus	8B-\	-ctus	8b-\	-ctus	.
.	.	.	.	.	.	.	.	.	8BB-/	qui	8b-\	qui	8G/	qui	8ee-\	qui	.
=5	=5	=5	=5	=5	=5	=5	=5	=5	=5	=5	=5	=5	=5	=5	=5	=5	=5
.	.	.	.	.	.	.	.	.	4BB-/	ve-	8b-\L	ve-	4F/	ve-	8dd\L	ve-	.
.	.	.	.	.	.	.	.	.	.	.	16a\L	.	.	.	16cc\L	.	.
.	.	.	.	.	.	.	.	.	.	.	16b-\JJ	.	.	.	16dd\JJ	.	.
.	.	.	.	.	.	.	.	.	8BB-/	-nit	16a\LL	-nit	8G/	-nit	(16ff\LL	-nit	.
.	.	.	.	.	.	.	.	.	.	.	16g\JJ	.	.	.	16ee-\JJ	.	.
.	.	.	.	.	.	.	.	.	8BB-/	qui	16f\LL	qui	8A/	qui	16dd\LL)	qui	.
.	.	.	.	.	.	.	.	.	.	.	16e-\JJ	.	.	.	16cc\JJ	.	.
!	!	!	!	!	!	!	!	!	!	!	!LO:LB:g=original	!	!	!	!LO:LB:g=original	!	!
=6	=6	=6	=6	=6	=6	=6	=6	=6	=6	=6	=6	=6	=6	=6	=6	=6	=6
.	.	.	.	.	.	.	.	.	8BB-/L	ve-	8d\L	ve-	4B-\	ve-	4b-\	ve-	.
.	.	.	.	.	.	.	.	.	16D/L	.	16f\L	.	.	.	.	.	.
.	.	.	.	.	.	.	.	.	16C/JJ	.	16e-\JJ	.	.	.	.	.	.
.	.	.	.	.	.	.	.	.	8BB-/	-nit	8d\	-nit	8B-\	-nit	8b-\	-nit	.
.	.	.	.	.	.	.	.	.	8AA/	in	8c\	in	8r	.	8cc\	in	.
=7	=7	=7	=7	=7	=7	=7	=7	=7	=7	=7	=7	=7	=7	=7	=7	=7	=7
.	.	.	.	.	.	.	.	.	8.GG/	no-	(16B-\LL	no-	4r	.	(16dd\LL	no-	.
.	.	.	.	.	.	.	.	.	.	.	16c\	.	.	.	16ee-\	.	.
.	.	.	.	.	.	.	.	.	.	.	16d\	.	.	.	16dd\	.	.
.	.	.	.	.	.	.	.	.	16G\	-mi-	16e-\JJ)	.	.	.	16cc\JJ)	.	.
.	.	.	.	.	.	.	.	.	4D\	-ne	4f\	.	8r	.	16b-\LL	-mi-	.
.	.	.	.	.	.	.	.	.	.	.	.	.	.	.	16a\	.	.
.	.	.	.	.	.	.	.	.	.	.	.	.	8B-\	Do-	(16g\	.	.
.	.	.	.	.	.	.	.	.	.	.	.	.	.	.	16f\JJ)	.	.
!	!	!	!	!	!	!	!	!	!LO:LB:g=original	!	!	!	!LO:LB:g=original	!	!	!	!
=8	=8	=8	=8	=8	=8	=8	=8	=8	=8	=8	=8	=8	=8	=8	=8	=8	=8
*	*	*	*	*	*	*	*	*	*2\right	*	*	*	*	*	*	*	*
1r	.	1r	.	1r	.	1r	.	.	2E-\	Do-	16g\LL	-mi-	8.B-\L	.	8e-/	-ne	.
.	.	.	.	.	.	.	.	.	.	.	16a\	.	.	.	.	.	.
.	.	.	.	.	.	.	.	.	.	.	16g\	.	.	.	4b-\	Do-	.
.	.	.	.	.	.	.	.	.	.	.	16f\JJ	.	16A\Jk	.	.	.	.
.	.	.	.	.	.	.	.	.	.	.	8e-\	-ne	8G\	.	.	.	.
.	.	.	.	.	.	.	.	.	.	.	8g\	Do-	(16d\LL	.	(16b-\LL	.	.
.	.	.	.	.	.	.	.	.	.	.	.	.	16c\JJ)	.	16cc\JJ)	.	.
=9	=9	=9	=9	=9	=9	=9	=9	=9	=9	=9	=9	=9	=9	=9	=9	=9	=9
.	.	.	.	.	.	.	.	.	2F\	-mi-	16f\LL	.	[4B-\	.	16dd\LL	.	.
.	.	.	.	.	.	.	.	.	.	.	16e-\JJ	.	.	.	16ee-\JJ	.	.
.	.	.	.	.	.	.	.	.	.	.	8d\	.	.	.	4ff\	.	.
.	.	.	.	.	.	.	.	.	.	.	4c\	-mi-	16B-\LL]	.	.	.	.
.	.	.	.	.	.	.	.	.	.	.	.	.	16A\JJ	.	.	.	.
.	.	.	.	.	.	.	.	.	.	.	.	.	16G\LL	-mi-	8ee-\	-mi-	.
.	.	.	.	.	.	.	.	.	.	.	.	.	16A\JJ	.	.	.	.
=10	=10	=10	=10	=10	=10	=10	=10	=10	=10	=10	=10	=10	=10	=10	=10	=10	=10
!	!	!	!	!	!	!	!	!LO:DY:a:rj	!	!	!	!	!	!	!	!	!
8r	.	8r	.	8r	.	8r	.	p	4BB-/	-ni	4B-/	-ni	4B-\	-ni	4dd\	-ni	.
16BB-/	Be-	16b-\	Be-	16f\	Be-	16dd\	Be-	.	.	.	.	.	.	.	.	.	.
16D/	-ne-	16b-\	-ne-	16f\	-ne-	16dd\	-ne-	.	.	.	.	.	.	.	.	.	.
4F\	-di-	8b-\L	-di-	8.f\L	-di-	(4cc\	-di-	.	4r	.	4r	.	4r	.	4r	.	.
.	.	8a\J	.	.	.	.	.	.	.	.	.	.	.	.	.	.	.
.	.	.	.	16e-\Jk	.	.	.	.	.	.	.	.	.	.	.	.	.
!	!	!	!	!	!	!LO:LB:g=original	!	!	!	!	!LO:LB:g=original	!	!	!	!LO:LB:g=original	!	!
=11	=11	=11	=11	=11	=11	=11	=11	=11	=11	=11	=11	=11	=11	=11	=11	=11	=11
8B-\	-ctus	8b-\	-ctus	8d\	-ctus	8b-\)	-ctus	.	8r	.	4d\	Be-	4r	.	4b-\	Be-	.
8r	.	8r	.	8r	.	8r	.	.	4B-\	Be-	.	.	.	.	.	.	.
4r	.	4r	.	4r	.	4r	.	.	.	.	4f\	-ne-	8r	.	4cc\	-ne-	.
.	.	.	.	.	.	.	.	.	8A\	-ne-	.	.	16f\	Be-	.	.	.
.	.	.	.	.	.	.	.	.	.	.	.	.	16e-\	-ne-	.	.	.
!LO:LB:g=original	!	!	!	!LO:LB:g=original	!	!	!	!	!	!	!	!	!	!	!	!	!
=12	=12	=12	=12	=12	=12	=12	=12	=12	=12	=12	=12	=12	=12	=12	=12	=12	=12
!LO:TX:t=6.	!	!LO:TX:t=6.	!	!LO:TX:t=6.	!	!LO:TX:t=6.	!	!	!	!	!	!	!	!	!	!	!
0r	.	0r	.	0r	.	0r	.	.	8B-\L	-di-	4f\	-di-	(8d\L	-di-	(8b-\L	-di-	.
.	.	.	.	.	.	.	.	.	16F\L	.	.	.	8c\J)	.	8a\J)	.	.
.	.	.	.	.	.	.	.	.	16E-\JJ	.	.	.	.	.	.	.	.
.	.	.	.	.	.	.	.	.	8D\	-ctus	8f\	-ctus	8B-\	-ctus	8b-\	-ctus	.
.	.	.	.	.	.	.	.	.	8E-\	qui	8r	.	8B-\	qui	8g\	qui	.
=13	=13	=13	=13	=13	=13	=13	=13	=13	=13	=13	=13	=13	=13	=13	=13	=13	=13
!	!	!	!	!	!	!	!	!	!	!	!LO:TX:t=1.	!	!	!	!	!	!
.	.	.	.	.	.	.	.	.	8D\L	ve-	2r	.	8B-\L	ve-	4f\	ve-	.
.	.	.	.	.	.	.	.	.	16C\L	.	.	.	16A\L	.	.	.	.
.	.	.	.	.	.	.	.	.	16D\JJ	.	.	.	16B-\JJ	.	.	.	.
.	.	.	.	.	.	.	.	.	16F\LL	-nit	.	.	16A/LL	-nit	8g\	-nit	.
.	.	.	.	.	.	.	.	.	16E-\JJ	.	.	.	16G/JJ	.	.	.	.
.	.	.	.	.	.	.	.	.	16D\LL	qui	.	.	16F/LL	qui	8a\	qui	.
.	.	.	.	.	.	.	.	.	16C\JJ	.	.	.	16E-/JJ	.	.	.	.
!	!	!	!	!	!	!	!	!	!	!	!	!	!LO:LB:g=original	!	!	!	!
=14	=14	=14	=14	=14	=14	=14	=14	=14	=14	=14	=14	=14	=14	=14	=14	=14	=14
!	!	!	!	!	!	!	!	!	!	!	!	!	!LO:TX:t=P:problem=mixed beam	!	!	!	!
.	.	.	.	.	.	.	.	.	8BB-/	ve-	8r	.	8D/L	ve-	4b-\	ve-	.
.	.	.	.	.	.	.	.	.	16BB-/	-nit	16f\LL	in	(16d\L	.	.	.	.
.	.	.	.	.	.	.	.	.	16r	.	16e-\JJ	.	16c\JJ)	.	.	.	.
.	.	.	.	.	.	.	.	.	16r	.	(16d\LL	no-	8B-\	-nit	8b-\	-nit	.
.	.	.	.	.	.	.	.	.	16F\LL	in	16e-\	.	.	.	.	.	.
.	.	.	.	.	.	.	.	.	16G\	.	16d\	-mi-	16f\LL	in	8r	.	.
.	.	.	.	.	.	.	.	.	16A\JJ	.	16c\JJ)	.	16e-\JJ	.	.	.	.
!	!	!	!	!	!	!	!	!	!LO:LB:g=original	!	!	!	!	!	!	!	!
=15	=15	=15	=15	=15	=15	=15	=15	=15	=15	=15	=15	=15	=15	=15	=15	=15	=15
.	.	.	.	.	.	.	.	.	16B-\LL	no-	8B-/	-ne	16d\LL	no-	4r	.	.
.	.	.	.	.	.	.	.	.	16c\	.	.	.	16e-\	.	.	.	.
.	.	.	.	.	.	.	.	.	16B-\	.	8r	.	16d\	.	.	.	.
.	.	.	.	.	.	.	.	.	16A\JJ	.	.	.	16c\JJ	.	.	.	.
.	.	.	.	.	.	.	.	.	16G\LL	.	4r	.	16B-\LL	-mi-	8r	.	.
.	.	.	.	.	.	.	.	.	16A\	.	.	.	16c\	.	.	.	.
.	.	.	.	.	.	.	.	.	16G\	.	.	.	16B-\	.	8b-\	in	.
.	.	.	.	.	.	.	.	.	16F\JJ	-mi-	.	.	16A\JJ	.	.	.	.
!	!	!	!	!	!	!	!	!	!	!	!	!	!	!	!LO:LB:g=original	!	!
=16	=16	=16	=16	=16	=16	=16	=16	=16	=16	=16	=16	=16	=16	=16	=16	=16	=16
1r	.	1r	.	1r	.	1r	.	.	4E-\	-ne	4r	.	8G/	-ne	8.b-\	no-	.
.	.	.	.	.	.	.	.	.	.	.	.	.	4B-\	Do-	.	.	.
.	.	.	.	.	.	.	.	.	.	.	.	.	.	.	16a\	-mi-	.
.	.	.	.	.	.	.	.	.	(4E-\	Do-	8r	.	.	.	8g\	-ne	.
.	.	.	.	.	.	.	.	.	.	.	8g\	Do-	(16B-\LL	.	16dd\LL	Do-	.
.	.	.	.	.	.	.	.	.	.	.	.	.	16c\JJ)	.	16cc\JJ	.	.
=17	=17	=17	=17	=17	=17	=17	=17	=17	=17	=17	=17	=17	=17	=17	=17	=17	=17
.	.	.	.	.	.	.	.	.	4F\)	.	16f\LL	.	16d\LL	.	[4b-\	.	.
.	.	.	.	.	.	.	.	.	.	.	16e-\JJ	.	16e-\JJ	.	.	.	.
.	.	.	.	.	.	.	.	.	.	.	8d\	.	4f\	.	.	.	.
.	.	.	.	.	.	.	.	.	4F\	-mi-	4c\	-mi-	.	.	16b-\LL]	.	.
.	.	.	.	.	.	.	.	.	.	.	.	.	.	.	16a\JJ	.	.
.	.	.	.	.	.	.	.	.	.	.	.	.	8e-\	-mi-	16g\LL	-mi-	.
.	.	.	.	.	.	.	.	.	.	.	.	.	.	.	16a\JJ	.	.
!	!	!LO:LB:g=original	!	!	!	!	!	!	!	!	!LO:LB:g=original	!	!	!	!	!	!
=18	=18	=18	=18	=18	=18	=18	=18	=18	=18	=18	=18	=18	=18	=18	=18	=18	=18
8r	.	8r	.	8r	.	8r	.	.	4BB-/	-ni	4B-/	-ni	4d\	-ni	4b-\	-ni	.
16BB-/	Be-	16f\	Be-	16B-\	Be-	16dd\	Be-	.	.	.	.	.	.	.	.	.	.
16D/	-ne-	16f\	-ne-	16B-\	-ne-	16dd\	-ne-	.	.	.	.	.	.	.	.	.	.
4F\	-di-	4f\	-di-	8B-\L	-di-	4cc\	-dic-	.	4r	.	4r	.	4r	.	8r	.	.
.	.	.	.	8A\J	.	.	.	.	.	.	.	.	.	.	16ff\LL	Be-	.
.	.	.	.	.	.	.	.	.	.	.	.	.	.	.	16ee-\JJ	.	.
!	!	!	!	!	!	!	!	!	!	!	!	!	!LO:LB:g=original	!	!	!	!
=19	=19	=19	=19	=19	=19	=19	=19	=19	=19	=19	=19	=19	=19	=19	=19	=19	=19
!	!	!	!	!	!	!	!	!	!	!	!LO:TX:t=2.	!	!	!	!	!	!
8BB-/	-ctus	8f\	-ctus	8B-\	-ctus	8b-\	-tus	.	4BB-/	Be-	1r	.	4d\	Be-	8dd\L	-ne-	.
8r	.	8r	.	8r	.	8r	.	.	.	.	.	.	.	.	(16cc\L	.	.
.	.	.	.	.	.	.	.	.	.	.	.	.	.	.	16b-\JJ)	.	.
4r	.	4r	.	4r	.	4r	.	.	4C/	-ne-	.	.	4e-\	-ne-	(16b-\LL	-di-	.
.	.	.	.	.	.	.	.	.	.	.	.	.	.	.	16a\)	.	.
.	.	.	.	.	.	.	.	.	.	.	.	.	.	.	16g\	.	.
.	.	.	.	.	.	.	.	.	.	.	.	.	.	.	16a\JJ	.	.
!	!	!	!	!	!	!	!	!	!	!	!	!	!	!	!LO:PB:g=original	!	!
=20	=20	=20	=20	=20	=20	=20	=20	=20	=20	=20	=20	=20	=20	=20	=20	=20	=20
!LO:TX:t=6.	!	!LO:TX:t=6.	!	!LO:TX:t=6.	!	!LO:TX:t=6.	!	!	!	!	!	!	!	!	!	!	!
0r	.	0r	.	0r	.	0r	.	.	8BB-/L	-di-	.	.	8d\L	-di-	8b-\	-ctus	.
.	.	.	.	.	.	.	.	.	8AA/J	.	.	.	8c\J	.	4ff\	qui	.
.	.	.	.	.	.	.	.	.	8BB-/	-ctus	.	.	8d\	-ctus	.	.	.
.	.	.	.	.	.	.	.	.	8GG/	qui	.	.	8B-\	qui	[8ee-\	ve-	.
=21	=21	=21	=21	=21	=21	=21	=21	=21	=21	=21	=21	=21	=21	=21	=21	=21	=21
.	.	.	.	.	.	.	.	.	4FF/	ve-	4r	.	4.B-\	ve-	8ee-\L]	.	.
.	.	.	.	.	.	.	.	.	.	.	.	.	.	.	8dd\J	-nit	.
.	.	.	.	.	.	.	.	.	8GG/	.	8r	.	.	.	8ee-\L	qui	.
.	.	.	.	.	.	.	.	.	8AA/	-nit	8f\	qui	8c\	.	(16dd\L	.	.
!	!	!	!	!	!	!	!	!	!	!	!	!	!LO:TX:t=P:problem=skreślony takt	!	!	!	!
.	.	.	.	.	.	.	.	.	.	.	.	.	.	.	16cc\JJ)	.	.
!	!	!	!	!	!	!	!	!	!LO:LB:g=original	!	!	!	!	!	!	!	!
=22	=22	=22	=22	=22	=22	=22	=22	=22	=22	=22	=22	=22	=22	=22	=22	=22	=22
.	.	.	.	.	.	.	.	.	4BB-/	ve-	(16f\LL	ve-	4B-\	-nit	(16dd\LL	ve-	.
.	.	.	.	.	.	.	.	.	.	.	16g\	.	.	.	16ee-\	.	.
.	.	.	.	.	.	.	.	.	.	.	16f\	.	.	.	16dd\	.	.
.	.	.	.	.	.	.	.	.	.	.	16e-\JJ)	.	.	.	16cc\JJ)	.	.
.	.	.	.	.	.	.	.	.	8BB-/	-nit	(16d\LL	-nit	16r	.	8b-\	-nit	.
.	.	.	.	.	.	.	.	.	.	.	16b-\	.	16g\LL	in	.	.	.
.	.	.	.	.	.	.	.	.	8r	.	16a\	in	16f\	.	8cc\	in	.
.	.	.	.	.	.	.	.	.	.	.	16g\JJ)	.	16e-\JJ	.	.	.	.
=23	=23	=23	=23	=23	=23	=23	=23	=23	=23	=23	=23	=23	=23	=23	=23	=23	=23
.	.	.	.	.	.	.	.	.	4r	.	8.f\L	no-	8.d\	no-	(16b-\LL	no-	.
.	.	.	.	.	.	.	.	.	.	.	.	.	.	.	16cc\	.	.
.	.	.	.	.	.	.	.	.	.	.	.	.	.	.	16dd\	.	.
.	.	.	.	.	.	.	.	.	.	.	16e-\Jk	-mi-	16c\	-mi-	16ee-\JJ)	.	.
.	.	.	.	.	.	.	.	.	8r	.	8d\	-ne	8B-\	-ne	4ff\	.	.
.	.	.	.	.	.	.	.	.	8BB-/	in	8b-\	in	8d\	in	.	.	.
!	!	!	!	!	!	!	!	!	!	!	!	!	!LO:LB:g=original	!	!	!	!
=24	=24	=24	=24	=24	=24	=24	=24	=24	=24	=24	=24	=24	=24	=24	=24	=24	=24
1r	.	1r	.	1r	.	1r	.	.	8.BB-/	no-	8.b-\	no-	8.d\	no-	8.ff\L	-mi-	.
.	.	.	.	.	.	.	.	.	16AA/	-mi-	16cc\	-mi-	16d\	-mi-	16ff#X\Jk	.	.
!	!	!	!	!	!	!	!	!	!	!	!LO:N:vis=4	!	!	!	!	!	!
.	.	.	.	.	.	.	.	.	8GG/	-ne	8b-\	-ne	8d\	-ne	8gg\	-ne	.
!	!	!	!	!	!	!	!	!	!	!	!LO:N:vis=8	!	!	!	!	!	!
.	.	.	.	.	.	.	.	.	16D/LL	do-	16bn\LL	do-	(8G/	do-	16ffn\LL	do-	.
!	!	!	!	!	!	!	!	!	!	!	!LO:N:vis=8	!	!	!	!	!	!
.	.	.	.	.	.	.	.	.	16C/JJ	.	16cc\JJ	.	.	.	16ee-\JJ	.	.
!	!	!	!	!	!	!	!	!	!	!	!	!	!	!	!LO:LB:g=original	!	!
=25	=25	=25	=25	=25	=25	=25	=25	=25	=25	=25	=25	=25	=25	=25	=25	=25	=25
.	.	.	.	.	.	.	.	.	[4BB-/	.	4.f\	.	8B-\L)	.	8dd\L	.	.
.	.	.	.	.	.	.	.	.	.	.	.	.	16d\L	.	16ff\L	.	.
.	.	.	.	.	.	.	.	.	.	.	.	.	(16B-\JJ	.	16dd\JJ	.	.
.	.	.	.	.	.	.	.	.	16BB-/LL]	.	.	.	4F/)	-mi-	4cc\	-mi-	.
.	.	.	.	.	.	.	.	.	16AA/	.	.	.	.	.	.	.	.
.	.	.	.	.	.	.	.	.	16GG/	-mi-	8e-\	-mi-	.	.	.	.	.
.	.	.	.	.	.	.	.	.	16AA/JJ	.	.	.	.	.	.	.	.
!	!	!	!	!	!	!	!	!	!	!	!LO:LB:g=original	!	!	!	!	!	!
=26	=26	=26	=26	=26	=26	=26	=26	=26	=26	=26	=26	=26	=26	=26	=26	=26	=26
8r	.	8r	.	8r	.	8r	.	.	4BB-/	-ni	4d\	-ni	4F/	-ni	4b-\	-ni	.
16BB-/	Be-	16b-\	Be-	16f\	Be-	16dd\	Be-	.	.	.	.	.	.	.	.	.	.
16D/	-ne-	16b-\	-ne-	16f\	-ne-	16dd\	-ne-	.	.	.	.	.	.	.	.	.	.
4F\	-di-	8b-\L	-di-	8.f\L	-di-	4cc\	-dic-	.	4r	.	4r	.	4r	.	4r	.	.
.	.	8a\J	.	.	.	.	.	.	.	.	.	.	.	.	.	.	.
.	.	.	.	16e-\Jk	.	.	.	.	.	.	.	.	.	.	.	.	.
!	!	!	!	!	!	!LO:LB:g=original	!	!	!	!	!	!	!	!	!	!	!
=27	=27	=27	=27	=27	=27	=27	=27	=27	=27	=27	=27	=27	=27	=27	=27	=27	=27
8B-\	-ctus	8b-\	-ctus	8d\	-ctus	8b-\	-tus	.	4r	.	8r	.	16r	.	16r	.	.
.	.	.	.	.	.	.	.	.	.	.	.	.	16f\	qui	16dd\	qui	.
8r	.	8r	.	8r	.	8r	.	.	.	.	16b-\	Be-	16g\LL	ve-	16ee-\LL	ve-	.
.	.	.	.	.	.	.	.	.	.	.	16b-\	-ne-	16f\JJ	.	16dd\JJ	.	.
4r	.	4r	.	4r	.	4r	.	.	8r	.	4b-\	-dic-	8e-\	-nit	8gg\	-nit	.
.	.	.	.	.	.	.	.	.	8B-\	in	.	.	8d\	in	8ff\	in	.
=28	=28	=28	=28	=28	=28	=28	=28	=28	=28	=28	=28	=28	=28	=28	=28	=28	=28
!LO:TX:t=2.	!	!LO:TX:t=2.	!	!LO:TX:t=2.	!	!LO:TX:t=2.	!	!	!	!	!	!	!	!	!	!	!
1r	.	1r	.	1r	.	1r	.	.	4.B-\	no-	8b-\	-tus	(8d\L	no-	(8ff\L	no-	.
.	.	.	.	.	.	.	.	.	.	.	8r	.	16B-\L	.	16dd\L	.	.
.	.	.	.	.	.	.	.	.	.	.	.	.	16c\JJ)	.	16ee-\JJ)	.	.
.	.	.	.	.	.	.	.	.	.	.	4r	.	[4d\	.	[4ff\	.	.
.	.	.	.	.	.	.	.	.	16d\	-mi-	.	.	.	.	.	.	.
.	.	.	.	.	.	.	.	.	16B-\	-ne	.	.	.	.	.	.	.
!	!	!	!	!	!	!	!	!	!LO:PB:g=original	!	!	!	!	!	!	!	!
=29	=29	=29	=29	=29	=29	=29	=29	=29	=29	=29	=29	=29	=29	=29	=29	=29	=29
!	!	!	!	!	!	!	!	!	!	!	!LO:TX:t=2.	!	!	!	!	!	!
.	.	.	.	.	.	.	.	.	4.F\	Do-	1r	.	8d\]	.	8ff\L]	.	.
.	.	.	.	.	.	.	.	.	.	.	.	.	16c\	-mi-	16ee-\L	-mi-	.
!	!	!	!	!	!	!	!	!	!	!	!	!	!	!LO:MO:mod=-ne	!	!	!
.	.	.	.	.	.	.	.	.	.	.	.	.	16B-\	-ni	16dd\JJ	-ne	.
.	.	.	.	.	.	.	.	.	.	.	.	.	8.B-\	Do-	8.cc\	Do-	.
.	.	.	.	.	.	.	.	.	(8F\	-mi-	.	.	.	.	.	.	.
.	.	.	.	.	.	.	.	.	.	.	.	.	16A\	-mi-	16cc\	-mi-	.
!	!	!	!	!	!	!	!	!	!	!	!	!	!LO:LB:g=original	!	!LO:LB:g=original	!	!
=30	=30	=30	=30	=30	=30	=30	=30	=30	=30	=30	=30	=30	=30	=30	=30	=30	=30
8r	.	8r	.	8r	.	8r	.	.	4BB-/)	-ni	.	.	4B-\	-ni	4dd\	-ni	.
16BB-/	Be-	16f\	Be-	16d\	Be-	16b-\	Be-	.	.	.	.	.	.	.	.	.	.
16BB-/	-ne-	16f\	-ne-	16d\	-ne-	16b-\	-ne-	.	.	.	.	.	.	.	.	.	.
8BB-/	-di-	8g\	-di-	8e-\	-di-	8b-\	-dic-	.	4r	.	.	.	4r	.	4r	.	.
16BB-/	-ctus	16f\	-ctus	16d\	-ctus	16b-\	-tus	.	.	.	.	.	.	.	.	.	.
16BB-/	qui	16e-\	qui	16c\	qui	16b-\	qui	.	.	.	.	.	.	.	.	.	.
!LO:LB:g=original	!	!LO:LB:g=original	!	!LO:LB:g=original	!	!	!	!	!	!	!	!	!	!	!	!	!
=31	=31	=31	=31	=31	=31	=31	=31	=31	=31	=31	=31	=31	=31	=31	=31	=31	=31
16BB-/	ve-	8d\	ve-	8B-\	ve-	8b-\	ve-	.	4r	.	8r	.	16r	.	16r	.	.
16BB-/	-nit	.	.	.	.	.	.	.	.	.	.	.	16d\	qui	16ff\	qui	.
8r	.	16d\	-nit	16B-\	-nit	16b-\	-nit	.	.	.	16b-\	Be-	16e-\LL	ve-	16gg\LL	ve-	.
.	.	16r	.	16r	.	16r	.	.	.	.	16b-\	-ne-	16d\JJ	.	16ff\JJ	.	.
4r	.	4r	.	4r	.	4r	.	.	8r	.	4b-\	-di-	8g\	-nit	8ee-\	-nit	.
.	.	.	.	.	.	.	.	.	8B-\	in	.	.	8f\	in	[8dd\	in	.
=32	=32	=32	=32	=32	=32	=32	=32	=32	=32	=32	=32	=32	=32	=32	=32	=32	=32
!LO:TX:t=2.	!	!LO:TX:t=2.	!	!LO:TX:t=2.	!	!LO:TX:t=2.	!	!	!	!	!	!	!	!	!	!	!
1r	.	1r	.	1r	.	1r	.	.	4.B-\	no-	8b-\	-ctus	8f\L	no-	8dd\L]	.	.
.	.	.	.	.	.	.	.	.	.	.	8r	.	16d\L	.	16b-\L	no-	.
.	.	.	.	.	.	.	.	.	.	.	.	.	16e-\JJ	.	16cc\JJ	.	.
.	.	.	.	.	.	.	.	.	.	.	4r	.	[4f\	.	[4dd\	.	.
.	.	.	.	.	.	.	.	.	16d\	-mi-	.	.	.	.	.	.	.
.	.	.	.	.	.	.	.	.	16B-\	-ne	.	.	.	.	.	.	.
=33	=33	=33	=33	=33	=33	=33	=33	=33	=33	=33	=33	=33	=33	=33	=33	=33	=33
.	.	.	.	.	.	.	.	.	4.F\	Do-	8r	.	8f\]	.	8dd\]	.	.
.	.	.	.	.	.	.	.	.	.	.	4f\	Do-	16e-\	-mi-	16cc\	-mi-	.
.	.	.	.	.	.	.	.	.	.	.	.	.	16d\	-ne	16b-\	-ne	.
.	.	.	.	.	.	.	.	.	.	.	.	.	8.c\	Do-	8.b-\	Do-	.
.	.	.	.	.	.	.	.	.	8F\	-mi-	8e-\	-mi-	.	.	.	.	.
.	.	.	.	.	.	.	.	.	.	.	.	.	16c\	-mi-	16a\	-mi-	.
!	!	!	!	!	!	!LO:LB:g=original	!	!	!	!	!	!	!	!	!	!	!
=34	=34	=34	=34	=34	=34	=34	=34	=34	=34	=34	=34	=34	=34	=34	=34	=34	=34
8r	.	8r	.	8r	.	8r	.	.	4BB-/	-ni	4d\	-ni	4B-\	-ni	4b-\	-ni	.
16BB-/	Be-	16f\	Be-	16d\	Be-	16b-\	Be-	.	.	.	.	.	.	.	.	.	.
16BB-/	-ne-	16f\	-ne-	16d\	-ne-	16b-\	-ne-	.	.	.	.	.	.	.	.	.	.
8BB-/	-di-	8g\	-di-	8e-\	-di-	8b-\	-dic-	.	4r	.	4r	.	4r	.	4r	.	.
16BB-/	-ctus	16f\	-ctus	16d\	-ctus	16b-\	-tus	.	.	.	.	.	.	.	.	.	.
16BB-/	qui	16e-\	qui	16c\	qui	16b-\	qui	.	.	.	.	.	.	.	.	.	.
!	!	!	!	!	!	!	!	!	!	!	!LO:LB:g=original	!	!	!	!LO:LB:g=original	!	!
=35	=35	=35	=35	=35	=35	=35	=35	=35	=35	=35	=35	=35	=35	=35	=35	=35	=35
!	!	!	!	!	!	!	!	!	!LO:TX:t=2.	!	!	!	!LO:TX:t=2.	!	!	!	!
8BB-/	ve-	8d\	ve-	8B-\	ve-	8b-\	ve-	.	1r	.	4r	.	1r	.	4r	.	.
16B-\	-nit	16e-\	-nit	16B-\	-nit	16cc\	-nit	.	.	.	.	.	.	.	.	.	.
16B-\	in	16f\	in	16B-\	in	16dd\	in	.	.	.	.	.	.	.	.	.	.
8E-\	no-	8g\	no-	8B-\	no-	8ee-\	no-	.	.	.	16r	.	.	.	16r	.	.
.	.	.	.	.	.	.	.	.	.	.	(16g\LL	Do-	.	.	16ee-\LL	Do-	.
8r	.	8r	.	8r	.	8r	.	.	.	.	16b-\	.	.	.	16ff\	.	.
.	.	.	.	.	.	.	.	.	.	.	16ee-\JJ)	.	.	.	[16gg\JJ	.	.
=36	=36	=36	=36	=36	=36	=36	=36	=36	=36	=36	=36	=36	=36	=36	=36	=36	=36
8r	.	8r	.	8r	.	8r	.	.	.	.	16ee-\LL	.	.	.	16gg\LL]	.	.
.	.	.	.	.	.	.	.	.	.	.	16dd\	.	.	.	16ff\	.	.
8F\	-mi-	8f\	-mi-	8B-\	-mi-	8dd\	-mi-	.	.	.	16b-\	.	.	.	16dd\	.	.
.	.	.	.	.	.	.	.	.	.	.	(16dd\JJ	.	.	.	[16ff\JJ	.	.
8r	.	8r	.	8r	.	8r	.	.	.	.	16dd\LL)	.	.	.	16ff\LL]	.	.
.	.	.	.	.	.	.	.	.	.	.	16cc\	.	.	.	16ee-\	.	.
8F\	-ne	8f\	-ne	8A\	-ne	8cc\	-ne	.	.	.	16a\	.	.	.	16cc\	.	.
.	.	.	.	.	.	.	.	.	.	.	(16cc\JJ	-mi-	.	.	16ee-\JJ	-mi-	.
!	!	!LO:LB:g=original	!	!LO:LB:g=original	!	!LO:LB:g=original	!	!	!	!	!	!	!	!	!	!	!
=37	=37	=37	=37	=37	=37	=37	=37	=37	=37	=37	=37	=37	=37	=37	=37	=37	=37
16BB-/	Do-	16d\	Do-	16B-\	Do-	16b-\	Do-	.	4r	.	8b-\)	-ni	4r	.	8dd\	-ni	.
16B-\	-mi-	16d\	-mi-	16B-\	-mi-	16b-\	-mi-	.	.	.	.	.	.	.	.	.	.
16B-\	-ni	16e-\	-ni	16B-\	-ni	16cc\	-ni	.	.	.	8r	.	.	.	8r	.	.
16B-\	in	16f\	in	16B-\	in	16dd\	in	.	.	.	.	.	.	.	.	.	.
8E-\	no-	8g\	no-	8B-\	no-	8ee-\	no-	.	16r	.	4r	.	16r	.	4r	.	.
.	.	.	.	.	.	.	.	.	16G\LL	Do-	.	.	(16e-\LL	Do-	.	.	.
8r	.	8r	.	8r	.	8r	.	.	16B-\	.	.	.	16f\	.	.	.	.
.	.	.	.	.	.	.	.	.	[16e-\JJ	.	.	.	16g\JJ)	.	.	.	.
!LO:LB:g=original	!	!	!	!	!	!	!	!	!	!	!	!	!	!	!	!	!
=38	=38	=38	=38	=38	=38	=38	=38	=38	=38	=38	=38	=38	=38	=38	=38	=38	=38
!	!	!	!	!	!	!	!	!	!	!	!LO:TX:t=1.	!	!	!	!LO:TX:t=1.	!	!
8r	.	8r	.	8r	.	8r	.	.	16e-\LL]	.	2r	.	16g\LL	.	2r	.	.
.	.	.	.	.	.	.	.	.	16d\	.	.	.	16f\	.	.	.	.
8F\	-mi-	8f\	-mi-	8B-\	-mi-	8dd\	-mi-	.	16B-\	.	.	.	16d\	.	.	.	.
.	.	.	.	.	.	.	.	.	(16d\JJ	.	.	.	[16f\JJ	.	.	.	.
8r	.	8r	.	8r	.	8r	.	.	16d\LL)	.	.	.	16f\LL]	.	.	.	.
.	.	.	.	.	.	.	.	.	16c\	.	.	.	16e-\	.	.	.	.
8F\	-ne	8f\	-ne	8A\	-ne	8cc\	-ne	.	16A\	.	.	.	16c\	-mi-	.	.	.
.	.	.	.	.	.	.	.	.	16c\JJ	-mi-	.	.	16e-\JJ	.	.	.	.
!	!	!	!	!	!	!	!	!	!LO:LB:g=original	!	!	!	!LO:PB:g=original	!	!	!	!
=39	=39	=39	=39	=39	=39	=39	=39	=39	=39	=39	=39	=39	=39	=39	=39	=39	=39
8B-\L	Do-	(8f\L	Do-	4B-\	Do-	4dd\	Do-	.	8B-\	-ni	8r	.	8d\	-ni	8r	.	.
8G\J	.	8g\J)	.	.	.	.	.	.	8G\	O-	8g\	O-	8B-\	O-	8dd\	O-	.
8E-\L	-mi-	(8g\L	-mi-	(8B-\L	-mi-	4cc\	-mi-	.	8E-\	-san-	8g\	-san-	8B-\	-san-	8cc\	-san-	.
8F\J	.	8f\J)	.	8A\J)	.	.	.	.	8F\	-na	8f\	-na	8A\	-na	8cc\	-na	.
!	!	!	!	!	!	!	!	!	!	!	!	!	!	!	!LO:LB:g=original	!	!
=40	=40	=40	=40	=40	=40	=40	=40	=40	=40	=40	=40	=40	=40	=40	=40	=40	=40
8B-\	-ni	8f\	-ni	8B-\	-ni	8dd\	-ni	.	8B-\	in	8f\	in	8B-\	in	8dd\	in	<
8G\	O-	8g\	O-	8B-\	O-	8dd\	O-	.	8G\	ex-	8g\	ex-	8B-\	ex-	8dd\	ex-	.
8E-\	-san-	8g\	-san-	8B-\	-san-	8cc\	-san-	.	8E-\	-cel-	8g\	-cel-	8B-\	-cel-	8cc\	-cel-	[
8F\	-na	16f\LL	-na	8A\	-na	8cc\	-na	.	8F\	-sis	16f\LL	-sis	8A\	-sis	8cc\	-sis	.
.	.	16e-\JJ	.	.	.	.	.	.	.	.	16e-\JJ	.	.	.	.	.	.
=41	=41	=41	=41	=41	=41	=41	=41	=41	=41	=41	=41	=41	=41	=41	=41	=41	=41
!	!	!	!	!	!	!	!	!	!	!	!	!	!	!	!	!	!LO:DY:a:rj
8B-\	in	8d\	in	8B-\	in	8b-\	in	.	8B-\	in	8d\	in	8B-\	in	8b-\	in	f
8E-\	ex-	8e-\	ex-	8B-\	ex-	8gg\	ex-	.	8E-\	ex-	8e-\	ex-	8B-\	ex-	8gg\	ex-	.
8F\	-cel-	8d\	-cel-	8B-\	-cel-	8ff\	-cel-	.	8F\	-cel-	8d\	-cel-	8B-\	-cel-	8ff\	-cel-	.
8F\	-sis	16f\LL	-sis	8c\	-sis	8a\	-sis	.	8F\	-sis	16f\LL	-sis	8c\	-sis	8a\	-sis	.
.	.	16e-\JJ	.	.	.	.	.	.	.	.	16e-\JJ	.	.	.	.	.	.
!	!	!LO:LB:g=original	!	!LO:LB:g=original	!	!LO:LB:g=original	!	!	!	!	!LO:PB:g=original	!	!	!	!	!	!
=42	=42	=42	=42	=42	=42	=42	=42	=42	=42	=42	=42	=42	=42	=42	=42	=42	=42
8BB-/	De-	8d\	De-	8B-\	De-	8b-\	De-	.	8BB-/	De-	8d\	De-	8B-\	De-	8b-\	De-	.
16BB-/	-o	16d\	-o	16B-\	-o	16b-\	-o	.	16BB-/	-o	16d\	-o	16B-\	-o	16b-\	-o	.
16r	.	16r	.	16r	.	16r	.	.	16r	.	16r	.	16r	.	16r	.	.
16B-\	in	16b-\	in	16d\	in	16b-\	in	.	16B-\	in	16b-\	in	16d\	in	16b-\	in	.
16B-\	ex-	16b-\	ex-	16d\	ex-	16b-\	ex-	.	16B-\	ex-	16b-\	ex-	16d\	ex-	16b-\	ex-	.
16B-\	-cel-	16a\	-cel-	16e-\	-cel-	16cc\	-cel-	.	16B-\	-cel-	16a\	-cel-	16e-\	-cel-	16cc\	-cel-	.
16B-\	-sis	16a-X\	-sis	16f\	-sis	16dd\	-sis	.	16B-\	-sis	16a-X\	-sis	16f\	-sis	16cc\	-sis	.
!	!	!	!	!	!	!	!	!	!	!	!	!	!	!	!LO:LB:g=original	!	!
=43	=43	=43	=43	=43	=43	=43	=43	=43	=43	=43	=43	=43	=43	=43	=43	=43	=43
*	*	*	*	*^	*	*	*	*	*	*	*	*	*^	*	*	*	*
*	*	*	*	*	*	*	*	*	*	*	*	*	*	*tremolo	*	*	*	*	*
4E-\	De-	4..g\	De-	4..g/	4..e- 4..B-\	De-	4..ee-\	De-	.	4E-\	De-	4..g\	De-	8e-/L	4..c\	De-	4..ee-\	De-	.
.	.	.	.	.	.	.	.	.	.	.	.	.	.	8e-/	.	.	.	.	.
8.G\L	.	.	.	.	.	.	.	.	.	8.G\L	.	.	.	8e-/J	.	.	.	.	.
*	*	*	*	*	*	*	*	*	*	*	*	*	*	*Xtremolo	*	*	*	*	*
.	.	.	.	.	.	.	.	.	.	.	.	.	.	8ryy	.	.	.	.	.
16B-\Jk	.	16b-\	.	16ryy	16f 16B-\	.	16dd\	.	.	16B-\Jk	.	16b-\	.	.	16f 16B-\	.	16dd\	.	.
*	*	*	*	*v	*v	*	*	*	*	*	*	*	*	*v	*v	*	*	*	*
=44	=44	=44	=44	=44	=44	=44	=44	=44	=44	=44	=44	=44	=44	=44	=44	=44	=44
*	*	*2\right	*	*2\right	*	*2\right	*	*	*	*	*2\right	*	*2\right	*	*2\right	*	*
2BB-;/	-o.	2b-;\	-o.	2f 2B-;\	-o.	2dd;\	-o	.	2BB-;/	-o.	2b-;\	-o.	2f 2B-;\	-o.	2dd;\	-o.	.
==	==	==	==	==	==	==	==	==	==	==	==	==	==	==	==	==	==
*-	*-	*-	*-	*-	*-	*-	*-	*-	*-	*-	*-	*-	*-	*-	*-	*-	*-
!!!system-decoration: [(s1,s2,s3,s4)][(s5,s6,s7,s8)]
!!!ENC: Kamil Watkowski
!!!END: 2020-12-08
!!!ENC: Marta Lawrence
!!!END: 2022-01-07
!!!YEC: Copyright 2022 Narodowy Instytut Fryderyka Chopina (https://polishscores.org)
!!!YEM: License CC-BY-4.0 (https://creativecommons.org/licenses/by/4.0)
